**kern	**dynam
*part1	*part1
*staff1	*
*I"Violino I	*
*I'Vn. I	*
*clefG2	*
*k[b-]	*
*F:	*
*M2/4	*
=	=
4ccc	f
16qqbb-/	.
8aaL	.
16ggL	.
16ffJ	.
=	=
.8ddL	.
16ggJk	.
8qqff/	.
4ee	.
=	=
8ff	.
4ff	.
8ff#X	.
=	=
16gg(L	.
16ff#X)	.
16ddd(	.
16ccc)J	.
16qqccc/	.
8bb-L	.
16aaL	.
16ggJ	.
=	=
.8ffLT	.
32eeL	.
64ffL	.
64ggJ	.
4ff`	.
=	=
4cc	p
16qqb-/	.
8aL	.
16gL	.
16fJ	.
=	=
.8dL	.
16gJk	.
8qqf/	.
4e	.
=	=
8f	.
4f	.
8f#X	.
=	=
16g(L	.
16f#X)	.
16dd(	.
16cc)J	.
16qqcc/	.
8b-L	.
16aL	.
16gJ	.
=	=
4f	.
16qqgg/	f
16ffL	.
32eeL	.
32ffJ	.
16aa	.
16ffJ	.
*-	*-
